X: 6580
T: Catriona's
R: jig
M: 6/8
K: Gmajor
|:G3 edB|GBD GBd|ege dBG|ABG E2F|
G3 edB|GBD GBd|ege dBG|AGF G3:|
|:e3 dBG|cBc dBG|E2G DBd|edB ABd|
e3 dBG|cBc dBG|E2G DGB|AGF G3:|

